X:1
T:Whoever Will
T:Whoever Will
T:Ira David Sankey
T:Frances Jane (Fanny) Crosby, 1887
T:Public Domain Courtesy of the Cyber Hymnal™
T:Public Domain Courtesy of the Cyber Hymnal™
C:Ira David Sankey
Z:Public Domain
Z:Courtesy of the Cyber Hymnal™
%%score ( 1 2 ) ( 3 4 )
L:1/8
Q:1/4=95
M:6/8
K:F
V:1 treble 
V:2 treble 
V:3 bass 
V:4 bass 
V:1
 C | (AG)[FA] [Fc]2 F | [FA]2 [EG] F2 F | (Bc)[Fd] [Fc]2 [FA] | (AG)[DF] [EG]2 C | %5
w: 1.~O|wander- * ing souls, why|will you roam A-|way * from God, a-|way * from home; The|
w: 2.~Be-|hold * His hands ex-|tend- ed now, The|dews * of night are|on * His brow; He|
w: 3.~In|sim- * ple faith His|Word be- lieve, And|His * a- bun- dant|grace * re- ceive; No|
w: 4.~The|“Spir- * it and the|Bride say, Come!” And|find * in Him sweet|rest, * and home; Let|
 (AG)[FA] [Fc]2 [FA] | [FB]2 [Fc] [Fd]2 [Be] | ([Af][Fc])[Fd] [Fc]2 F | [FA]2 [EG] F2 z || %9
w: Sav- * ior calls, O|hear Him say, “Who-|ev- * er will may|come to- day.”|
w: knocks, * He calls, He|wait- eth still, Oh,|come * to Him, who-|ev- er will.|
w: love * like His the|heart can fill, Oh,|come * to Him, who-|ev- er will.|
w: Him * that hear- eth,|e- cho still, The|bless- * èd who- so-|ev- er will.|
"^Refrain" [Fc][Fc][Fc] [Fc]2 z | [Fd][Fd][Fd] [Fd]2 z | [EG][EG][FA] [EB]2 [Ed] | %12
w: |||
w: Who- ev- er will,|who- ev- er will,|Who- ev- er will may|
w: |||
w: |||
 [Fc]2 [GB] [FA]2 z | [CA][CA][CA] [CA]2 [_Ec] | [Dc]2 [DB] [DF]2 [FG] | %15
w: |||
w: come to- day;|Who- ev- er will may|come to- day, And|
w: |||
w: |||
 [FA][FA][FB] [FA]<[FA][EG] | F3- F2 |] %17
w: ||
w: drink of the wa- ter of|life. *|
w: ||
w: ||
V:2
 C | F2 x2 F x | x3 F2 F | F2 x4 | F2 x2 C x | F2 x4 | x6 | x5 F | x3 F2 x || x6 | x6 | x6 | x6 | %13
 x6 | x6 | x6 | F3- F2 |] %17
V:3
 [F,A,] | (CB,)[F,C] [F,A,]2 [A,,C] | [C,C]2 [C,B,] [F,A,]2 [F,A,] | %3
 ([D,B,][C,A,])[B,,B,] [F,A,]2 [F,C] | [D,=B,]2 [G,,B,] [C,C]2 [F,A,] | (CB,)[F,C] [F,A,]2 [_E,C] | %6
 [D,B,]2 [C,A,] [B,,B,]2 [G,C] | (CA,)[F,B,] [F,A,]2 [D,A,] | [C,C]2 [C,B,] [F,A,]2 z || %9
 [F,A,][F,A,][F,A,] [F,A,]2 z | [B,,B,][B,,B,][B,,B,] [B,,B,]2 z | %11
 [C,B,][C,B,][C,A,] [C,G,]2 [C,B,] | [C,A,]2 [E,C] [F,C]2 z | F,F,F, F,2 [A,,F,] | %14
 [B,,F,]2 [B,,F,] [B,,B,]2 [B,,D] | [C,C][C,C][C,D] [C,C]<[C,C][C,B,] | [F,A,]3- [F,A,]2 |] %17
V:4
 x | F,2 x4 | x6 | x6 | x6 | F,2 x4 | x6 | F,2 x4 | x6 || x6 | x6 | x6 | x6 | F,F,F, F,2 x | x6 | %15
 x6 | x5 |] %17

